X:88
T:Fred Pigeon's
M:4/4
L:1/8
R:Polka
K:G
D2|:G2G2FGAF|G2G2FGAF|G2B2 cBAG|F2A2D2D2|
|G2G2FGAF|G2G2FGAF|G2B2 cBAG|1 D2G2G2D2:|2 D2G2G2 Bc|
|:d4d4| dcBA G2G2|A3B cBcd|e2A2 A2 Bc|
|d4d4| dcBA G2G2|A2A2D2EF|1 G4G2 Bc:|2 G4G2D2|
